src/assets/icons/smallAnimal/rabbit.svg

<svg width="28" height="28" viewBox="0 0 28 28" fill="none" xmlns="http://www.w3.org/2000/svg">
<path d="M23.713 20.7741L17.6504 14.9476L16.3799 13.7262V12.6866L16.8134 3.77429L16.8511 3C16.2655 3.10496 15.6919 3.29704 15.1505 3.57775C14.875 3.72033 14.6076 3.88668 14.3517 4.0753C14.2347 4.16144 14.1198 4.25204 14.0079 4.34759C12.5217 5.62092 11.8277 7.45962 11.9687 9.25822L11.6827 8.9884L9.45022 6.88236L7.83246 5.35704C7.3924 6.08876 7.10939 6.92246 7.02609 7.81359C7.00953 7.99331 7 8.175 7 8.35916C7 9.00177 7.10487 9.61962 7.29756 10.1989C7.6463 11.2459 8.28357 12.1638 9.11754 12.8604C9.65696 13.3109 10.2782 13.6683 10.9566 13.9084C10.225 15.6234 9.05732 17.1121 7.5901 18.2408C9.23897 21.6464 12.7625 24 16.8435 24C17.7186 24 18.5677 23.8916 19.3786 23.6881C19.8287 23.5619 20.2672 23.4084 20.6917 23.2287C21.3812 22.9366 22.034 22.5777 22.6412 22.1583C23.1239 21.8251 23.5785 21.4548 24 21.0513L23.713 20.7756V20.7741Z" stroke="#231F20" stroke-width="2.3" stroke-linecap="round" stroke-linejoin="round"/>
</svg>

<?xml version="1.0" encoding="utf-8"?>
<!-- Generator: Adobe Illustrator 26.1.0, SVG Export Plug-In . SVG Version: 6.00 Build 0)  -->
<svg version="1.1" id="Layer_1" xmlns="http://www.w3.org/2000/svg" xmlns:xlink="http://www.w3.org/1999/xlink" x="0px" y="0px"
	 viewBox="0 0 28 28" style="enable-background:new 0 0 28 28;" xml:space="preserve">
<style type="text/css">
	.st0{fill:none;stroke:#000000;stroke-width:2.3;stroke-linecap:round;stroke-linejoin:round;}
</style>
<path class="st0" d="M23.71,20.77l-6.06-5.83l-1.27-1.22v-1.04l0.43-8.91L16.85,3c-0.59,0.1-1.16,0.3-1.7,0.58
	c-0.28,0.14-0.54,0.31-0.8,0.5c-0.12,0.09-0.23,0.18-0.34,0.27c-1.49,1.27-2.18,3.11-2.04,4.91l-0.29-0.27L9.45,6.88L7.83,5.36
	C7.39,6.09,7.11,6.92,7.03,7.81C7.01,7.99,7,8.18,7,8.36C7,9,7.1,9.62,7.3,10.2c0.35,1.05,0.99,1.96,1.82,2.66
	c0.54,0.45,1.16,0.81,1.84,1.05c-0.73,1.72-1.9,3.2-3.37,4.33C9.24,21.65,12.76,24,16.84,24c0.88,0,1.72-0.11,2.54-0.31
	c0.45-0.13,0.89-0.28,1.31-0.46c0.69-0.29,1.34-0.65,1.95-1.07c0.48-0.33,0.94-0.7,1.36-1.11L23.71,20.77L23.71,20.77z"/>
</svg>
